src/topics/icons/aws-cloudfront.svg

<svg height="308" preserveAspectRatio="xMidYMid" viewBox="0 0 256 308" width="256" xmlns="http://www.w3.org/2000/svg"><g transform="translate(165 48)"><path d="m1.01 79.465 59.2023978-6.3140856 30.6756022 6.3690856.111.068-56.558 3.374-33.484-3.442z" fill="#5e1f18"/><path d="m.958 79.521 59.204-4.625.407-.593.002-73.044-.407-.835-59.206 15.397z" fill="#8c3123"/><path d="m91 79.59-30.838-4.694.002-74.472 30.835 15.428z" fill="#e05243"/></g><g transform="translate(165 176)"><path d="m.958 4.115.865.606 58.349 3.959 29.772-3.959 1.055-.579-56.557-3.475z" fill="#f2b0a9"/><path d="m.958 4.115 59.214 4.405.183.246-.045 73.942-.146.386-59.206-15.275z" fill="#8c3123"/><path d="m90.999 4.142-30.827 4.378-.008 74.574 30.835-15.309z" fill="#e05243"/></g><g transform="translate(0 48)"><path d="m89.119 79.408-58.5303282-5.0138594-30.3936718 5.0448594-.193.151 56.557 3.374 32.874-3.376z" fill="#5e1f18"/><path d="m.002 79.59 30.557-4.474.899-.637v-73.2l-.899-.855-30.557 15.431z" fill="#8c3123"/><path d="m89.433 79.588-58.874-4.472v-74.692l58.877 15.397z" fill="#e05243"/></g><g transform="translate(0 176)"><path d="m89.433 4.142-1.351.985-57.523 4.313-29.583-4.313-.976-.985 56.559-3.475z" fill="#f2b0a9"/><path d="m0 4.142 30.558 4.34.777.952.083 72.333-.859 1.327-30.557-15.309z" fill="#8c3123"/><path d="m89.433 4.142-58.875 4.34.001 74.612 58.874-15.275z" fill="#e05243"/></g><g transform="translate(66 183)"><path d="m123.104 6.66-61.103-6.026-61.712 6.027.87.735 60.541 9.617 60.533-9.617z" fill="#f2b0a9"/><path d="m.289 6.661 61.411 8.998.623.833.079 106.959-.702 1.186-61.411-30.706z" fill="#8c3123"/><path d="m123.104 6.66-61.404 8.999v108.978l61.405-30.706z" fill="#e05243"/></g><g transform="translate(66)"><path d="m62.001 123.933-61.712-5.958.159-.091 61.2490009-9.501969 61.2219991 9.523969.186.069z" fill="#5e1f18"/><path d="m.289 117.975 61.411-8.949.294-.268-.136-108.593-.158-.165-61.411 30.709z" fill="#8c3123"/><path d="m123.105 117.975-61.405-8.949v-109.026l61.405 30.709z" fill="#e05243"/></g></svg>

<?xml version="1.0" encoding="UTF-8" standalone="no"?>
<svg width="256px" height="308px" viewBox="0 0 256 308" version="1.1" xmlns="http://www.w3.org/2000/svg" xmlns:xlink="http://www.w3.org/1999/xlink" preserveAspectRatio="xMidYMid">
	<g>
		<g transform="translate(165.000000, 48.000000)">
			<path d="M1.01,79.465 L60.2123978,73.1509144 L90.888,79.52 L90.999,79.588 L34.441,82.962 L0.957,79.52 L1.01,79.465 L1.01,79.465 Z" fill="#5E1F18"></path>
			<path d="M0.958,79.521 L60.162,74.896 L60.569,74.303 L60.571,1.259 L60.164,0.424 L0.958,15.821 L0.958,79.521" fill="#8C3123"></path>
			<path d="M91,79.59 L60.162,74.896 L60.164,0.424 L90.999,15.852 L91,79.59" fill="#E05243"></path>
		</g>
		<g transform="translate(165.000000, 176.000000)">
			<path d="M0.958,4.115 L1.823,4.721 L60.172,8.68 L89.944,4.721 L90.999,4.142 L34.442,0.667 L0.958,4.115" fill="#F2B0A9"></path>
			<path d="M0.958,4.115 L60.172,8.52 L60.355,8.766 L60.31,82.708 L60.164,83.094 L0.958,67.819 L0.958,4.115" fill="#8C3123"></path>
			<path d="M90.999,4.142 L60.172,8.52 L60.164,83.094 L90.999,67.785 L90.999,4.142" fill="#E05243"></path>
		</g>
		<g transform="translate(0.000000, 48.000000)">
			<path d="M89.119,79.408 L30.5886718,74.3941406 L0.195,79.439 L0.002,79.59 L56.559,82.964 L89.433,79.588 L89.119,79.408 Z" fill="#5E1F18"></path>
			<path d="M0.002,79.59 L30.559,75.116 L31.458,74.479 L31.458,1.279 L30.559,0.424 L0.002,15.855 L0.002,79.59" fill="#8C3123"></path>
			<path d="M89.433,79.588 L30.559,75.116 L30.559,0.424 L89.436,15.821 L89.433,79.588" fill="#E05243"></path>
		</g>
		<g transform="translate(0.000000, 176.000000)">
			<path d="M89.433,4.142 L88.082,5.127 L30.559,9.44 L0.976,5.127 L0,4.142 L56.559,0.667 L89.433,4.142" fill="#F2B0A9"></path>
			<path d="M0,4.142 L30.558,8.482 L31.335,9.434 L31.418,81.767 L30.559,83.094 L0.002,67.785 L0,4.142" fill="#8C3123"></path>
			<path d="M89.433,4.142 L30.558,8.482 L30.559,83.094 L89.433,67.819 L89.433,4.142" fill="#E05243"></path>
		</g>
		<g transform="translate(66.000000, 183.000000)">
			<path d="M123.104,6.66 L62.001,0.634 L0.289,6.661 L1.159,7.396 L61.7,17.013 L122.233,7.396 L123.104,6.66" fill="#F2B0A9"></path>
			<path d="M0.289,6.661 L61.7,15.659 L62.323,16.492 L62.402,123.451 L61.7,124.637 L0.289,93.931 L0.289,6.661" fill="#8C3123"></path>
			<path d="M123.104,6.66 L61.7,15.659 L61.7,124.637 L123.105,93.931 L123.104,6.66" fill="#E05243"></path>
		</g>
		<g transform="translate(66.000000, 0.000000)">
			<path d="M62.001,123.933 L0.289,117.975 L0.448,117.884 L61.6970009,108.382031 L122.919,117.906 L123.105,117.975 L62.001,123.933 L62.001,123.933 Z" fill="#5E1F18"></path>
			<path d="M0.289,117.975 L61.7,109.026 L61.994,108.758 L61.858,0.165 L61.7,0 L0.289,30.709 L0.289,117.975" fill="#8C3123"></path>
			<path d="M123.105,117.975 L61.7,109.026 L61.7,0 L123.105,30.709 L123.105,117.975" fill="#E05243"></path>
		</g>
	</g>
</svg>
